packages/calcite-ui-icons/icons/government-building-32.svg

<?xml version="1.0" encoding="UTF-8"?><svg id="icons" xmlns="http://www.w3.org/2000/svg" viewBox="0 0 32 32"><defs><style>.cls-1{fill:none;}.cls-2{fill-rule:evenodd;}</style></defs><path class="cls-2" d="M2,12h2v14l-1,1v3h26v-3l-1-1v-14h2v-1H2v1ZM28,29H4v-1.58594l.41406-.41406h23.17188l.41406.41406v1.58594ZM18,26h-4v-3h4v3ZM27,12v14h-2v-14h2ZM24,12v14h-2v-14h2ZM21,12v14h-2v-4h-6v4h-2v-14h10ZM10,12v14h-2v-14h2ZM7,12v14h-2v-14h2ZM16,2L1,10h30L16,2ZM16,3.13379l11,5.86621H5l11-5.86621Z"/><rect class="cls-1" width="32" height="32"/></svg>

<svg xmlns="http://www.w3.org/2000/svg" viewBox="0 0 32 32"><path d="M2 12h2v14l-1 1v3h26v-3l-1-1V12h2v-1H2v1zm26 17H4v-1.586L4.414 27h23.172l.414.414V29zm-10-3h-4v-3h4v3zm9-14v14h-2V12h2zm-3 0v14h-2V12h2zm-3 0v14h-2v-4h-6v4h-2V12h10zm-11 0v14H8V12h2zm-3 0v14H5V12h2zm9-10L1 10h30L16 2zm0 1.134L27 9H5l11-5.866z" fill-rule="evenodd"/><path fill="none" d="M0 0h32v32H0z"/></svg>
